assets/Mountain cableway/Flat/mountain_cableway_flat.svg

<svg width="32" height="32" viewBox="0 0 32 32" fill="none" xmlns="http://www.w3.org/2000/svg">
<path d="M27.9793 12H4.01072C2.90032 12 2 12.9 2 14.01L4.5 19.5L2 25V26.99C2 28.65 3.35048 30 5.01108 30H26.9889C28.6495 30 30 28.65 30 26.99V25L27 19.5L30 14.01C29.99 12.91 29.0897 12 27.9793 12Z" fill="#F8312F"/>
<path d="M6.89632 14H2V25H6.89632C7.50836 25 8 24.51 8 23.9V15.1C8 14.5 7.50836 14 6.89632 14ZM25.1037 25H30V14H25.1037C24.4916 14 24 14.49 24 15.1V23.9C24 24.51 24.4916 25 25.1037 25ZM11.0991 14H20.9009C21.5104 14 22 14.5 22 15.1V23.9C22 24.51 21.5104 25 20.9009 25H11.0991C10.4896 25 10 24.51 10 23.9V15.1C10 14.49 10.4896 14 11.0991 14Z" fill="#26C9FC"/>
<path d="M29.0228 2.88062C29.0888 3.42896 28.6977 3.92691 28.1493 3.99283L4.10935 6.88284C3.56101 6.94876 3.06306 6.55768 2.99714 6.00934C2.93122 5.461 3.3223 4.96305 3.87063 4.89713L27.9106 2.00713C28.459 1.94121 28.9569 2.33228 29.0228 2.88062Z" fill="#D3D3D3"/>
<path d="M23.0229 3.60061C23.0888 4.14895 22.6977 4.6469 22.1493 4.7128L17 5.33171V11H20.4C20.73 11 20.99 11.27 21 11.59V12H17H15H11V11.59C11 11.27 11.26 11 11.59 11H15V5.5721L9.66933 6.2128C9.12099 6.27871 8.62305 5.88762 8.55714 5.33928C8.49124 4.79094 8.88232 4.293 9.43066 4.22709L21.9107 2.72709C22.459 2.66119 22.9569 3.05228 23.0229 3.60061Z" fill="#636363"/>
</svg>

<svg xmlns="http://www.w3.org/2000/svg" width="32" height="32" fill="none"><path fill="#F8312F" d="M27.98 12H4.01C2.9 12 2 12.9 2 14.01l2.5 5.49L2 25v1.99C2 28.65 3.35 30 5.011 30H26.99C28.649 30 30 28.65 30 26.99V25l-3-5.5 3-5.49c-.01-1.1-.91-2.01-2.02-2.01Z"/><path fill="#26C9FC" d="M6.896 14H2v11h4.896C7.508 25 8 24.51 8 23.9v-8.8c0-.6-.492-1.1-1.104-1.1Zm18.208 11H30V14h-4.896c-.612 0-1.104.49-1.104 1.1v8.8c0 .61.492 1.1 1.104 1.1ZM11.099 14h9.802c.61 0 1.099.5 1.099 1.1v8.8c0 .61-.49 1.1-1.1 1.1h-9.8c-.61 0-1.1-.49-1.1-1.1v-8.8c0-.61.49-1.1 1.1-1.1Z"/><path fill="#D3D3D3" d="M29.023 2.88a1 1 0 0 1-.874 1.113L4.11 6.883a1 1 0 0 1-.238-1.986l24.04-2.89a1 1 0 0 1 1.112.874Z"/><path fill="#636363" d="M23.023 3.6a1 1 0 0 1-.874 1.113L17 5.332V11h3.4c.33 0 .59.27.6.59V12H11v-.41c0-.32.26-.59.59-.59H15V5.572l-5.33.64a1 1 0 1 1-.24-1.985l12.48-1.5a1 1 0 0 1 1.113.874Z"/></svg>
